Newaita-dark/.DP/16/octopi-error.svg

<svg xmlns="http://www.w3.org/2000/svg" xmlns:xlink="http://www.w3.org/1999/xlink" width="16px" height="16px" viewBox="0 0 16 16" version="1.1">
<g id="surface1">
<path style=" stroke:none;fill-rule:nonzero;fill:rgb(93.725491%,32.549021%,31.37255%);fill-opacity:1;" d="M 7.9375 1.449219 C 5.007812 1.449219 2.644531 4.101562 2.644531 7.402344 L 2.644531 12.695312 C 2.644531 13.046875 2.785156 13.382812 3.03125 13.628906 C 3.28125 13.878906 3.617188 14.019531 3.96875 14.015625 C 4.320312 14.019531 4.65625 13.878906 4.90625 13.628906 C 5.152344 13.382812 5.292969 13.046875 5.292969 12.695312 L 5.292969 11.371094 C 5.292969 11.195312 5.359375 11.027344 5.484375 10.902344 C 5.609375 10.777344 5.777344 10.710938 5.953125 10.710938 C 6.320312 10.710938 6.613281 11.003906 6.613281 11.371094 L 6.613281 12.695312 C 6.613281 13.425781 7.207031 14.015625 7.9375 14.015625 C 8.289062 14.019531 8.625 13.878906 8.875 13.628906 C 9.125 13.382812 9.261719 13.046875 9.261719 12.695312 L 9.261719 11.371094 C 9.261719 11.003906 9.554688 10.710938 9.921875 10.710938 C 10.097656 10.710938 10.265625 10.777344 10.390625 10.902344 C 10.515625 11.027344 10.585938 11.195312 10.585938 11.371094 L 10.585938 12.695312 C 10.582031 13.046875 10.722656 13.382812 10.972656 13.628906 C 11.21875 13.878906 11.554688 14.019531 11.90625 14.015625 C 12.257812 14.019531 12.59375 13.878906 12.84375 13.628906 C 13.09375 13.382812 13.230469 13.046875 13.230469 12.695312 L 13.230469 7.402344 C 13.230469 4.101562 10.871094 1.449219 7.9375 1.449219 Z M 5.953125 4.753906 C 6.6875 4.753906 7.277344 5.347656 7.277344 6.078125 C 7.277344 6.8125 6.6875 7.402344 5.953125 7.402344 C 5.601562 7.402344 5.265625 7.261719 5.015625 7.015625 C 4.769531 6.765625 4.628906 6.429688 4.628906 6.078125 C 4.628906 5.726562 4.769531 5.390625 5.015625 5.140625 C 5.265625 4.894531 5.601562 4.753906 5.953125 4.753906 Z M 9.921875 4.753906 C 10.65625 4.753906 11.246094 5.347656 11.246094 6.078125 C 11.246094 6.8125 10.65625 7.402344 9.921875 7.402344 C 9.570312 7.402344 9.234375 7.261719 8.988281 7.015625 C 8.738281 6.765625 8.597656 6.429688 8.601562 6.078125 C 8.601562 5.726562 8.738281 5.390625 8.988281 5.140625 C 9.234375 4.894531 9.574219 4.753906 9.921875 4.753906 Z M 6.285156 5.25 C 5.828125 5.25 5.457031 5.621094 5.457031 6.078125 C 5.457031 6.296875 5.542969 6.507812 5.699219 6.664062 C 5.855469 6.820312 6.066406 6.90625 6.285156 6.90625 C 6.503906 6.90625 6.714844 6.820312 6.871094 6.664062 C 7.023438 6.507812 7.113281 6.296875 7.113281 6.078125 C 7.113281 5.859375 7.023438 5.648438 6.871094 5.492188 C 6.714844 5.339844 6.503906 5.25 6.285156 5.25 Z M 10.253906 5.25 C 10.035156 5.25 9.824219 5.339844 9.667969 5.492188 C 9.515625 5.648438 9.425781 5.859375 9.425781 6.078125 C 9.425781 6.296875 9.511719 6.507812 9.667969 6.664062 C 9.824219 6.820312 10.035156 6.90625 10.253906 6.90625 C 10.710938 6.90625 11.082031 6.535156 11.082031 6.078125 C 11.082031 5.859375 10.992188 5.648438 10.839844 5.492188 C 10.683594 5.339844 10.472656 5.25 10.253906 5.25 Z M 10.253906 5.25 "/>
</g>
</svg>

<svg xmlns="http://www.w3.org/2000/svg" width="16pt" height="16pt" viewBox="0 0 16 16"><path d="M7.938 1.45c-2.93 0-5.293 2.652-5.293 5.952v5.293c0 .73.59 1.32 1.324 1.32a1.32 1.32 0 0 0 1.324-1.32v-1.324c0-.367.293-.66.66-.66.367 0 .66.293.66.66v1.324c0 .73.594 1.32 1.324 1.32a1.32 1.32 0 0 0 1.325-1.32v-1.324c0-.367.293-.66.66-.66a.66.66 0 0 1 .664.66v1.324c0 .73.59 1.32 1.32 1.32a1.32 1.32 0 0 0 1.324-1.32V7.402c0-3.3-2.359-5.953-5.293-5.953zM5.952 4.753c.734 0 1.324.594 1.324 1.324a1.32 1.32 0 0 1-1.324 1.324 1.325 1.325 0 0 1 0-2.648zm3.969 0c.734 0 1.324.594 1.324 1.324a1.32 1.32 0 0 1-1.324 1.324c-.73 0-1.32-.59-1.32-1.324 0-.73.59-1.324 1.32-1.324zm-3.637.496a.829.829 0 1 0 .001 1.657.829.829 0 0 0 0-1.657zm3.969 0a.829.829 0 1 0 0 1.657.829.829 0 0 0 0-1.657zm0 0" fill="#ef5350"/></svg>
